.local/share/icons/Gruvbox-Plus-Dark/panel/16/caps-lock-on.svg

<svg xmlns="http://www.w3.org/2000/svg" width="16" height="16" version="1.1">
 <defs>
  <style id="current-color-scheme" type="text/css">
   .ColorScheme-Text { color:#ebdbb2; } .ColorScheme-Highlight { color:#458588; }
  </style>
 </defs>
 <path style="fill:currentColor" class="ColorScheme-Text" d="M 3.625 1 A 1.7500384 1.6924769 0 0 0 1.8847656 2.5058594 L 1.0097656 10.121094 A 1.7500384 1.6924769 0 0 0 2.75 12 L 13.25 12 A 1.7500384 1.6924769 0 0 0 14.990234 10.121094 L 14.115234 2.5058594 A 1.7500384 1.6924769 0 0 0 12.375 1 L 3.625 1 z M 7.140625 3 L 8.8496094 3 L 11 9 L 9.5898438 9 L 9.1386719 8 L 6.8671875 8 L 6.4101562 9 L 5 9 L 7.140625 3 z M 7.9921875 4.3378906 L 7.1503906 7 L 8.8496094 7 L 7.9921875 4.3378906 z M 1 12.300781 L 1 12.779297 C 1 13.839797 1.9084203 15 2.96875 15 L 13.03125 15 C 14.091667 15 15 13.839797 15 12.779297 L 15 12.300781 C 14.534537 12.725155 13.928072 12.998047 13.25 12.998047 L 2.75 12.998047 C 2.0722779 12.998047 1.4651137 12.725155 1 12.300781 z"/>
</svg>

<svg width="16" height="16" version="1.1" xmlns="http://www.w3.org/2000/svg">
  <defs>
    <style id="current-color-scheme" type="text/css">.ColorScheme-Text { color:#ebdbb2; } .ColorScheme-Highlight { color:#458588; } .ColorScheme-NeutralText { color:#fe8019; } .ColorScheme-PositiveText { color:#689d6a; } .ColorScheme-NegativeText { color:#fb4934; }</style>
  </defs>
  <path class="ColorScheme-Text" d="m3.625 1a1.75 1.692 0 0 0-1.74 1.506l-0.875 7.615a1.75 1.692 0 0 0 1.74 1.879h10.5a1.75 1.692 0 0 0 1.74-1.879l-0.875-7.615a1.75 1.692 0 0 0-1.74-1.506h-8.75zm3.516 2h1.709l2.15 6h-1.41l-0.4512-1h-2.271l-0.457 1h-1.41l2.141-6zm0.8516 1.338-0.8418 2.662h1.699l-0.8574-2.662zm-6.992 7.963v0.4785c0 1.06 0.9084 2.221 1.969 2.221h10.06c1.06 0 1.969-1.16 1.969-2.221v-0.4785c-0.4655 0.4244-1.072 0.6973-1.75 0.6973h-10.5c-0.6777 0-1.285-0.2729-1.75-0.6973z" fill="currentColor"/>
</svg>
